svg/outline/two-keys.svg

<svg width="24" height="24" viewBox="0 0 24 24" fill="none" xmlns="http://www.w3.org/2000/svg">
<g clip-path="url(#clip0)">
<path d="M14.2568 5.97637C13.4076 4.27597 11.4251 3.33769 9.45519 3.82885C7.18558 4.39473 5.79206 6.64372 6.34267 8.85211C6.50046 9.48497 6.80079 10.0458 7.20241 10.5106L4.49434 14.8812C4.28106 15.2254 4.21601 15.6412 4.31397 16.0341L4.67313 17.4746C4.70653 17.6086 4.84221 17.6901 4.97618 17.6567L6.50368 17.2759C6.8828 17.1813 7.21007 16.9426 7.41587 16.6105L10.3003 11.9553" stroke="black" stroke-linecap="round"/>
<ellipse cx="10.8197" cy="7.26603" rx="1.05882" ry="1.03026" transform="rotate(-14 10.8197 7.26603)" stroke="black"/>
<path d="M17.8107 15.6101C20.0803 15.0442 21.4739 12.7952 20.9233 10.5868C20.3726 8.37843 18.0864 7.04691 15.8168 7.61279C13.5472 8.17866 12.1537 10.4277 12.7043 12.636C12.8621 13.2689 13.1624 13.8298 13.564 14.2946L10.8559 18.6651C10.6427 19.0093 10.5776 19.4251 10.6756 19.818L11.0347 21.2585C11.0681 21.3925 11.2038 21.474 11.3378 21.4406L12.8653 21.0598C13.2444 20.9653 13.5717 20.7265 13.7775 20.3944L16.6619 15.7392C17.0396 15.7475 17.4254 15.7061 17.8107 15.6101Z" stroke="black"/>
<ellipse cx="17.2028" cy="10.9836" rx="1.05882" ry="1.03026" transform="rotate(-14 17.2028 10.9836)" stroke="black"/>
</g>
<defs>
<clipPath id="clip0">
<rect width="24" height="24" fill="white"/>
</clipPath>
</defs>
</svg>

<svg xmlns="http://www.w3.org/2000/svg" fill="none" viewBox="0 0 24 24" stroke="currentColor">
  <g clip-path="url(#clip0)">
    <path stroke-linecap="round" d="M14.257 5.976c-.85-1.7-2.832-2.638-4.802-2.147-2.27.566-3.663 2.815-3.112 5.023.157.633.458 1.194.86 1.659l-2.709 4.37a1.5 1.5 0 00-.18 1.153l.36 1.44a.25.25 0 00.302.183l1.528-.381a1.5 1.5 0 00.912-.666l2.884-4.655"/>
    <ellipse cx="10.82" cy="7.266" rx="1.059" ry="1.03" transform="rotate(-14 10.82 7.266)"/>
    <path d="M17.81 15.61c2.27-.566 3.664-2.815 3.113-5.023-.55-2.209-2.837-3.54-5.106-2.974-2.27.566-3.663 2.815-3.113 5.023.158.633.458 1.194.86 1.659l-2.708 4.37a1.5 1.5 0 00-.18 1.153l.359 1.44a.25.25 0 00.303.183l1.527-.381a1.5 1.5 0 00.912-.666l2.885-4.655c.378.008.763-.033 1.149-.129z"/>
    <ellipse cx="17.203" cy="10.984" rx="1.059" ry="1.03" transform="rotate(-14 17.203 10.984)"/>
  </g>
  <defs>
    <clipPath id="clip0">
      <path fill="#fff" d="M0 0h24v24H0z"/>
    </clipPath>
  </defs>
</svg>
